wp-content/themes/hatch/dist/asset/img/built-by.svg

<?xml version="1.0" encoding="UTF-8" standalone="no"?>
<svg width="335px" height="66px" viewBox="0 0 335 66" version="1.1" xmlns="http://www.w3.org/2000/svg" xmlns:xlink="http://www.w3.org/1999/xlink">
    <!-- Generator: Sketch 3.8.3 (29802) - http://www.bohemiancoding.com/sketch -->
    <title>Group</title>
    <desc>Created with Sketch.</desc>
    <defs></defs>
    <g id="Link-love" stroke="none" stroke-width="1" fill="none" fill-rule="evenodd">
        <g id="Group">
            <path d="M0.260253906,54 L0.260253906,12.0102539 L16.871582,12.0102539 C21.0551967,12.0102539 24.1569723,13.0356343 26.177002,15.0864258 C28.1970316,17.1372173 29.2070312,19.5160997 29.2070312,22.2231445 C29.2070312,26.9809808 26.7256108,30.1391524 21.7626953,31.6977539 C24.7158351,32.4565468 26.9101491,33.8100489 28.3457031,35.7583008 C29.7812572,37.7065527 30.4990234,39.9111205 30.4990234,42.3720703 C30.4990234,45.6738446 29.3864857,48.4372447 27.161377,50.6623535 C24.9362682,52.8874623 21.5063708,54 16.871582,54 L0.260253906,54 Z M5.3359375,30.0058594 L14.472168,30.0058594 C18.2661323,30.0058594 20.7988218,29.2829662 22.0703125,27.8371582 C23.3418032,26.3913502 23.9775391,24.6943457 23.9775391,22.7460938 C23.9775391,20.8183497 23.2956611,19.2597716 21.9318848,18.0703125 C20.5681084,16.8808534 18.5327284,16.2861328 15.8256836,16.2861328 L5.3359375,16.2861328 L5.3359375,30.0058594 Z M5.3359375,49.3857422 L16.5947266,49.3857422 C19.3427872,49.3857422 21.4653245,48.7192449 22.9624023,47.3862305 C24.4594801,46.053216 25.2080078,44.3203232 25.2080078,42.1875 C25.2080078,40.6904222 24.8696323,39.3010318 24.1928711,38.0192871 C23.5161099,36.7375424 22.5625062,35.7480504 21.3320312,35.0507812 C20.1015563,34.3535121 18.2661255,34.0048828 15.8256836,34.0048828 L5.3359375,34.0048828 L5.3359375,49.3857422 Z M63.3681641,54 L59.0307617,54 L59.0307617,48.0629883 C56.8159069,52.5747296 53.5141821,54.8305664 49.1254883,54.8305664 C45.9467615,54.8305664 43.4499602,53.7846784 41.6350098,51.6928711 C39.8200593,49.6010638 38.9125977,46.6274607 38.9125977,42.7719727 L38.9125977,22.9306641 L43.7421875,22.9306641 L43.7421875,42.7719727 C43.7421875,45.8481599 44.3830502,47.9655704 45.6647949,49.1242676 C46.9465396,50.2829648 48.3564376,50.8623047 49.8945312,50.8623047 C51.4531328,50.8623047 52.8630308,50.4213911 54.1242676,49.5395508 C55.3855044,48.6577104 56.4365192,47.4016195 57.2773438,45.7712402 C58.1181683,44.140861 58.5385742,42.361826 58.5385742,40.434082 L58.5385742,22.9306641 L63.3681641,22.9306641 L63.3681641,54 Z M79.0107422,12.0102539 L79.0107422,17.362793 L73.8120117,17.362793 L73.8120117,12.0102539 L79.0107422,12.0102539 Z M78.8569336,22.9306641 L78.8569336,54 L74.0273438,54 L74.0273438,22.9306641 L78.8569336,22.9306641 Z M94.3149414,54 L89.4853516,54 L89.4853516,12.0102539 L94.3149414,12.0102539 L94.3149414,54 Z M119.062988,50.6777344 L119.062988,54.4921875 C117.360831,54.7177746 115.884284,54.8305664 114.633301,54.8305664 C108.624482,54.8305664 105.620117,51.6929025 105.620117,45.4174805 L105.620117,26.7143555 L100.11377,26.7143555 L100.11377,22.9306641 L105.620117,22.9306641 L105.835449,15.1171875 L110.32666,14.6865234 L110.32666,22.9306641 L117.278809,22.9306641 L117.278809,26.7143555 L110.32666,26.7143555 L110.32666,46.2172852 C110.32666,49.4165199 111.987776,51.0161133 115.310059,51.0161133 C116.417486,51.0161133 117.66845,50.9033214 119.062988,50.6777344 L119.062988,50.6777344 Z M142.441895,54 L140.104004,54 L140.104004,12.0102539 L144.933594,12.0102539 L144.933594,28.0986328 C147.148449,24.0790815 150.204082,22.0693359 154.100586,22.0693359 C157.668963,22.0693359 160.657947,23.474107 163.067627,26.2836914 C165.477307,29.0932758 166.682129,33.1742896 166.682129,38.5268555 C166.682129,43.1411364 165.497815,47.0119473 163.12915,50.1394043 C160.760486,53.2668613 157.679218,54.8305664 153.885254,54.8305664 C149.660623,54.8305664 146.420421,52.8413285 144.164551,48.862793 L142.441895,54 Z M144.933594,41.8183594 C145.159181,44.9970862 146.138419,47.304192 147.871338,48.7397461 C149.604257,50.1753001 151.434561,50.8930664 153.362305,50.8930664 C155.823254,50.8930664 157.807366,49.8266708 159.314697,47.6938477 C160.822029,45.5610245 161.575684,42.6386904 161.575684,38.9267578 C161.575684,34.9277144 160.847664,31.7849235 159.391602,29.498291 C157.93554,27.2116585 155.91554,26.0683594 153.331543,26.0683594 C151.301259,26.0683594 149.470955,26.8835368 147.840576,28.513916 C146.210197,30.1442953 145.241212,32.2514519 144.933594,34.8354492 L144.933594,41.8183594 Z M195.259766,22.9306641 L182.80127,57.6298828 C180.996573,62.6338141 178.115254,65.1357422 174.157227,65.1357422 C172.906244,65.1357422 171.52198,64.9204123 170.004395,64.4897461 L170.004395,60.7060547 C171.255377,60.9931655 172.332027,61.1367188 173.234375,61.1367188 C174.772469,61.1367188 176.059321,60.6958052 177.094971,59.8139648 C178.13062,58.9321245 179.161128,56.7993333 180.186523,53.4155273 L169.450684,22.9306641 L174.372559,22.9306641 L182.678223,46.2788086 L191.199219,22.9306641 L195.259766,22.9306641 Z" id="Built-by" fill="#000000"></path>
            <g id="H-+-X" transform="translate(222.000000, 0.000000)" fill="#111111">
                <rect id="Rectangle-1" x="52.1898148" y="0.862275449" width="3.65629984" height="63.8794942"></rect>
                <polygon id="H" points="42.5242243 9.47577572 27.6133914 9.47577572 27.6133914 25.9700599 15.2096897 25.9700599 15.2096897 9.47577572 0.298856832 9.47577572 0.298856832 55 15.2096897 55 15.2096897 38.1758302 27.6133914 38.1758302 27.6133914 55 42.5242243 55"></polygon>
                <polygon id="X" points="96.9050737 31.2482308 111.222112 9.47577572 93.4082854 9.47577572 87.0085032 21.681546 80.5427438 9.47577572 62.7289169 9.47577572 77.1119327 31.2482308 61.9371913 55 79.7510182 55 87.0085032 40.4850299 94.2659882 55 112.079815 55"></polygon>
            </g>
        </g>
    </g>
</svg>

<svg width="335" height="66" xmlns="http://www.w3.org/2000/svg"><g fill="none" fill-rule="evenodd"><path d="M.26 54V12.01h16.612c4.183 0 7.285 1.026 9.305 3.076 2.02 2.051 3.03 4.43 3.03 7.137 0 4.758-2.481 7.916-7.444 9.475 2.953.759 5.147 2.112 6.583 4.06 1.435 1.949 2.153 4.153 2.153 6.614 0 3.302-1.113 6.065-3.338 8.29C24.936 52.887 21.506 54 16.871 54H.262zm5.076-23.994h9.136c3.794 0 6.327-.723 7.598-2.169 1.272-1.446 1.908-3.143 1.908-5.09 0-1.929-.682-3.487-2.046-4.677-1.364-1.19-3.4-1.784-6.106-1.784H5.336v13.72zm0 19.38h11.259c2.748 0 4.87-.667 6.367-2 1.497-1.333 2.246-3.066 2.246-5.199a8.791 8.791 0 00-1.015-4.168c-.677-1.281-1.63-2.27-2.861-2.968-1.23-.697-3.066-1.046-5.506-1.046H5.336v15.38zM63.368 54h-4.337v-5.937c-2.215 4.512-5.517 6.768-9.906 6.768-3.178 0-5.675-1.046-7.49-3.138-1.815-2.092-2.722-5.066-2.722-8.921V22.931h4.83v19.841c0 3.076.64 5.194 1.922 6.352 1.282 1.159 2.691 1.738 4.23 1.738a7.21 7.21 0 004.23-1.322c1.26-.882 2.312-2.138 3.152-3.769.841-1.63 1.262-3.41 1.262-5.337V22.931h4.83V54zm15.643-41.99v5.353h-5.199V12.01h5.199zm-.154 10.92V54h-4.83V22.93h4.83zM94.315 54h-4.83V12.01h4.83V54zm24.748-3.322v3.814c-1.702.226-3.179.339-4.43.339-6.009 0-9.013-3.138-9.013-9.414V26.714h-5.506v-3.783h5.506l.215-7.814 4.492-.43v8.244h6.952v3.783h-6.952v19.503c0 3.2 1.66 4.8 4.983 4.8 1.107 0 2.358-.114 3.753-.34zM142.442 54h-2.338V12.01h4.83V28.1c2.214-4.02 5.27-6.03 9.167-6.03 3.568 0 6.557 1.405 8.967 4.215 2.41 2.81 3.614 6.89 3.614 12.243 0 4.614-1.184 8.485-3.553 11.612-2.369 3.128-5.45 4.692-9.244 4.692-4.224 0-7.465-1.99-9.72-5.968L142.442 54zm2.492-12.182c.225 3.18 1.204 5.486 2.937 6.922 1.733 1.435 3.564 2.153 5.491 2.153 2.461 0 4.445-1.066 5.953-3.2 1.507-2.132 2.26-5.054 2.26-8.766 0-4-.727-7.142-2.183-9.429-1.456-2.286-3.476-3.43-6.06-3.43-2.03 0-3.861.816-5.491 2.446-1.63 1.63-2.6 3.737-2.907 6.321v6.983zm50.326-18.887L182.8 57.63c-1.804 5.004-4.686 7.506-8.644 7.506-1.25 0-2.635-.216-4.153-.646v-3.784c1.251.287 2.328.43 3.23.43 1.538 0 2.825-.44 3.861-1.322 1.036-.882 2.066-3.015 3.092-6.398L169.45 22.93h4.922l8.305 23.348L191.2 22.93h4.06z" fill="#000"/><path d="M274.19.862h3.656v63.879h-3.656zm-9.666 8.614h-14.91V25.97H237.21V9.476h-14.911V55h14.91V38.176h12.404V55h14.911zm54.381 21.772l14.317-21.772h-17.814l-6.4 12.206-6.465-12.206h-17.814l14.383 21.772L283.937 55h17.814l7.258-14.515L316.266 55h17.814z" fill="#111"/></g></svg>
